X:1
T:Beautiful Witness
T:Beautiful Witness
T:William Howard Doane
T:Frances Jane (Fanny) Crosby, 1868
T:Public Domain Courtesy of the Cyber Hymnal™
T:Public Domain Courtesy of the Cyber Hymnal™
C:William Howard Doane
Z:Public Domain
Z:Courtesy of the Cyber Hymnal™
%%score ( 1 2 ) ( 3 4 )
L:1/8
Q:1/4=87
M:2/4
K:Eb
V:1 treble 
V:2 treble 
V:3 bass 
V:4 bass 
V:1
 E[DF] [EG][FA] | [GB][Ac] [GB]!fermata![Ge] | [Bd][Ac] [GB][FA] | [Ac][GB] [EG]2 | %4
w: 1.~Jim- mie, said his|kind pro- tect- or,|Long his faith- ful|friend and guide,|
w: 2.~’Twas the Ho- ly|Spir- it led him|In the plea- sant|way of truth,|
w: 3.~Child- ren, we may|love the Sav- ior;|If we seek Him,|we shall find;|
 E[DF] [EG][FA][GB][Ac][GB]!fermata![Ae] | [Bd][Ac] [GB][FA] |"^riten." [EG][DF] E2 | %7
w: Jim- mie, do you love the Sav- ior?|Yes, the hap- py|child re- plied.|
w: And he sought and found the Sav- ior|In the ear- ly|days of youth.|
w: Are we rea- dy now to serve Him|With our heart, our|strength, and mind?|
 [FA][FA] [FA][FA] | [FA][GB] [FA]!fermata![EG] | [Ac][Ac] [Ac][Ae] | [GB][EG] [DF]2 | %11
w: Can you tell how|much you love Him?|All my heart to|Him I give;|
w: Should he live till|years have sprink- led|O’er his brow the|frost of age,|
w: Think of all His|ten- der mer- cies,|All the won- ders|He has done.|
 [FA][FA] [FA][GB] | [EG][GB] [Ac]!fermata![GB] |"^Slow" [Ac][Bd] [ce][FA][EG][DF] E2 || %14
w: Love my Sav- ior?|Yes, for- ev- er,|I will try for Him to live.|
w: Sweet to him the|words of com- fort,|From the Bi- ble’s sac- red page.|
w: Lit- tle Jim- mie’s|bright ex- amp- le|Let us fol- low, ev- ery one.|
"^Refrain" [Ee]2 [Ed][Ac] | [GB]2 [EG][Ec] | (BF) ([DB][FA]) | [EG]3 [EG] [EA]2 [EA][EA] | %18
w: ||||
w: ||||
w: ||||
 [Ac]2 [Ac][Ac] | [GB]2 [EG]2 | !fermata![DF]2 [EG][GB] | [GB]4 | [EG][GB] [Ac][Ae] | [Ae]4 | %24
w: ||||||
w: ||||||
w: ||||||
 [Ac]3 [Ac] | [GB][EG] E[EF] | [EG]2 [DF]2 | E4- | E4 |] %29
w: |||||
w: |||||
w: |||||
V:2
 E x3 | x4 | x4 | x4 | E x7 | x4 | x2 E2 | x4 | x4 | x4 | x4 | x4 | x4 | x6 E2 || x4 | x4 | D2 x2 | %17
 x8 | x4 | x4 | x4 | x4 | x4 | x4 | x4 | x2 E x | x4 | E4- | E4 |] %29
V:3
 E,E, E,E, | E,E, E,!fermata!E, | B,,B,, B,,B,, | E,E, E,2 | E,E, E,E,E,E,E,!fermata!E, | %5
w: ~ ~ ~ ~|~ ~ ~ ~|~ ~ ~ ~|~ ~ ~|~ ~ ~ ~ ~ ~ ~ ~|
 B,,B,, B,,B,, | B,,B,, !fermata!E,2 | z4 | z4 | A,A, A,A, | E,E, B,,2 | z4 | E,F, E,!fermata!E, | %13
w: ~ ~ ~ ~|~ ~ ~|||~ ~ ~ ~|~ ~ ~||~ ~ ~ ~|
 A,,A,, A,,A,,B,,B,, E,2 || [A,,C]2 [A,,B,][A,,A,] | [E,E]2 [E,B,][E,A,] | [B,,B,]2 (F,B,) | %17
w: ~ ~ ~ ~ ~ ~ ~|Beau- ti- ful|wit- ness for|God is *|
 [E,B,]3 [E,B,] [A,,C]2 [A,,C][A,,C] | [A,,E]2 [A,,E][A,,E] | [E,E]2 [E,B,]2 | %20
w: he, The tears of the|or- phan are|wiped a-|
 !fermata![B,,B,]2 [E,B,][E,E] | [E,E]4 | [E,B,][E,E] [A,,E][A,,C] | [A,,C]4 | [A,,E]3 [A,,E] | %25
w: way, I love|Je-|sus, and Je- sus|loves|me; And|
 [E,E][E,B,] [G,,B,][A,,C] | [B,,B,]2 (B,A,) | [E,G,]4- | [E,G,]4 |] %29
w: that is all I’ve|got to *|say.||
V:4
 x4 | x4 | x4 | x4 | x8 | x4 | x4 | x4 | x4 | x4 | x4 | x4 | x4 | x8 || x4 | x4 | x2 B,,2 | x8 | %18
 x4 | x4 | x4 | x4 | x4 | x4 | x4 | x4 | x2 B,,2 | x4 | x4 |] %29

